X: 63
T: Boże litościwy,
C: Mikołaj Gomółka
%%abc-version 2.0
%%abcx-abcm2ps-target-version 5.9.1 (29 Sep 2008)
%%abc-creator hum2abc beta
%%abcx-conversion-date 2021/10/04 07:59:10
%%abc-edited-by Anna Matuszewska
%%abcx-initial-encoding-date 2020-02-12
%%humdrum-veritas 3447340353
%%humdrum-veritas-data 3709933781
%%linebreak <none>
%%barnumbers 0
L: 1/4
M: C|
N: Derived from pl-wn--sd-xvi-qu-273--064_gomolka-mikolaj--boze-litosciwy.krn
%%staves [1 2 3 4]
V: 1 clef=treble
V: 2
V: 3 clef=alto
V: 4
K: F
[V:1] G4d4 [I:setbarnb 3][|] 
[V:2] D4G2G2 [|] 
[V:3] G,2>A,2B,2B,2 [|] 
[V:4] G,4G,F,_E,D, [|] 
[V:1] ed2c2<d2d [|] 
[V:2] G2>A2BAGF [|] 
[V:3] CDE2D2D2 [|] 
[V:4] C,_B,,C,2G,A,B,2 [|] 
[V:1] c2B2B2A2 [|] 
[V:2] G2G2F3E [|] 
[V:3] E2>D2CB,C2 [|] 
[V:4] E,2E,2F,2F,2 [|] 
[V:1] B2A2A3G [|] 
[V:2] DEF2E3E [|] 
[V:3] B,CD2C3C [|] 
[V:4] G,2D,2A,,3C, [|] 
[V:1] B2B2A3c [|] 
[V:2] D2B,2G,3C [|] 
[V:3] B,CDE2<F2E [|] 
[V:4] G,,A,,B,,C,2<D,2A,, [|] 
[V:1] B2A2>G2G4 [|] 
[V:2] F2E2D2C2 [|] 
[V:3] D2C2B,2A,G, [|] 
[V:4] B,,2C,2D,2E,2 [|] 
[V:1] F2G4 [|] 
[V:2] D4D4 [|] 
[V:3] A,4G,4 [|] 
[V:4] D,4G,4 [|] 


